icons/windows-fill.svg

<svg width="24" height="24" fill="none" xmlns="http://www.w3.org/2000/svg"><g clip-path="url(#a)"><path d="m3 5.479 7.377-1.016v7.127H3V5.479Zm0 13.042 7.377 1.017v-7.04H3v6.023Zm8.188 1.125L21 21v-8.502h-9.812v7.148Zm0-15.292v7.236H21V3l-9.812 1.354Z" /></g><defs><clipPath id="a"><path fill="#fff" d="M0 0h24v24H0z"/></clipPath></defs></svg>

<svg xmlns="http://www.w3.org/2000/svg" width="24" height="24" fill="none"><g clip-path="url(#a)"><g><path fill="#121212" d="M3 5.479L10.377 4.463V11.59H3V5.48V5.479ZM3 18.521L10.377 19.538V12.498H3V18.521ZM11.188 19.646L21 21V12.498H11.188V19.646ZM11.188 4.354V11.59H21V3L11.188 4.354Z"/></g></g><defs><clipPath id="a"><rect width="24" height="24" fill="white"/></clipPath></defs></svg>
